icons/default/Seat.svg

<path d="M17.95 16.95 21.25 1s-5.775 1.1-5.775 3.3c0 1.375 2.2 2.2 1.375 3.025-.825.825-3.85 1.65-3.85 3.85 0 1.375.902 2.398 0 3.3-.825.825-1.65.393-3.025 0-1.54-.44-4.675-.825-5.775-.55C3.1 14.2 2 14.75 2 16.4c0 .908.55 1.925 1.925 2.2 1.375.275 3.025-1.1 5.225-1.1 2.2 0 4.95 1.65 6.6 1.65 1.65 0 2.2-2.2 2.2-2.2Z" stroke="#000" stroke-width=".8" stroke-linejoin="round"/><path d="M4.2 18.6 2.55 23H20.7l-3.3-4.4" stroke="#000" stroke-width=".8" stroke-linejoin="round"/>

<path
	d="M17.95 16.95L21.25 1C21.25 1 15.475 2.1 15.475 4.3C15.475 5.675 17.675 6.5 16.85 7.325C16.025 8.15 13 8.975 13 11.175C13 12.55 13.902 13.573 13 14.475C12.175 15.3 11.35 14.8677 9.975 14.475C8.435 14.035 5.3 13.65 4.2 13.925C3.1 14.2 2 14.75 2 16.4C2 17.3075 2.55 18.325 3.925 18.6C5.3 18.875 6.95 17.5 9.15 17.5C11.35 17.5 14.1 19.15 15.75 19.15C17.4 19.15 17.95 16.95 17.95 16.95Z"
	stroke="black" stroke-width="0.8" stroke-linejoin="round" />
<path d="M4.20005 18.6001L2.55005 23.0001H20.7L17.4 18.6001" stroke="black" stroke-width="0.8"
	stroke-linejoin="round" />
